X:1
T:Jennie Mazurka
M:3/8
L:1/8
B:Ford - Traditional Music in America (1940)
Z:AK/Fiddler's Companion
K:G
.g d>^d|f/>e/ e2|.c f>f|a/>g/ g2|.b d>^d|
f/>e/ e2|.c f>f|a/>g/ g2|
.g d>^d|f/>e/ e2|.c f>f|a/>g/ g2|
.b d>^d|f/>e/ e2|.c f>f|a/>g/ g2||
b>(.g.e/^.c/)|.d f>d|^.c e>c|d>.f.g/.a/|
b>.g.e/.^c/|.d f>d|^.c e>c|e/>d/ d2||

